X: 12
M:6/8
L:1/8
K:F
|:d|ecA ecA| ecA ecA|afd afd|afd afd|ecA ecA|ecA e2 f/2g/2| a>gf e>de| d3 d2:|

